!!!OTL: No_46_Ca'wûno'ga_Song_(a).krn
!!!REG: Great_Lakes
!!!LANG: Non-Tone
!!!LING_GROUP: Algonquin
!!!SOCIAL_FUNCTION: songs of war
**kern	**kern
*staff2	*staff1
=1-	=1-
*clefF4	*clefF4
*k[b-e-a-d-]	*k[b-e-a-d-]
*M2/4	*M2/4
8GG/L	8.B-\L
8GG/J	.
.	16B-\Jk
8GG/L	4c\
8GG/J	.
=2||	=2||
*M3/4	*M3/4
2.r	8.c\L
.	16B-\Jk
.	4B-\
.	4B-;\
=3||	=3||
*M2/4	*M2/4
2r	8.f\L
.	16f\Jk
.	4e-\
=4	=4
2r	16.e-\LL
.	32B-\JK
.	8B-\J
.	16.B-\LL
.	32B-\JK
.	8B-\J
=5||	=5||
*M3/4	*M3/4
2.r	8.G-\L
.	16F\Jk
.	4F\
.	4F;\
=6	=6
2.r	8.c\L
.	16c\Jk
.	4B-\
.	16.B-\LL
.	32B-\JK
.	8A-;\J
=7||	=7||
*M2/4	*M2/4
2r	16.B-\LL
.	32B-\JK
.	8B-\J
.	8.G-\L
.	16F\Jk
=8	=8
2r	[4F\
.	8.F/L]
.	16C/Jk
=9	=9
2r	12F\L
.	12F\
.	12F\J
.	8F\L
.	24F\K
.	12C\J
=10	=10
2r	12F\L
.	12F\
.	12F\J
.	8F\L
.	24F\K
.	12C\J
==	==
*-	*-
